img/city.svg

<svg width="331" height="159" viewBox="0 0 331 159" fill="none" xmlns="http://www.w3.org/2000/svg">
<g filter="url(#filter0_d_3168_3787)">
<mask id="path-1-inside-1_3168_3787" fill="white">
<path fill-rule="evenodd" clip-rule="evenodd" d="M166.502 1.29825C165.834 -0.432746 164.166 -0.432743 163.498 1.29825L155.517 22H10C4.47715 22 0 26.4772 0 32V139C0 144.523 4.47716 149 10 149H311C316.523 149 321 144.523 321 139V32C321 26.4772 316.523 22 311 22H174.483L166.502 1.29825Z"/>
</mask>
<path fill-rule="evenodd" clip-rule="evenodd" d="M166.502 1.29825C165.834 -0.432746 164.166 -0.432743 163.498 1.29825L155.517 22H10C4.47715 22 0 26.4772 0 32V139C0 144.523 4.47716 149 10 149H311C316.523 149 321 144.523 321 139V32C321 26.4772 316.523 22 311 22H174.483L166.502 1.29825Z" fill="#FAFAFA"/>
<path d="M163.498 1.29825L162.565 0.938503V0.938505L163.498 1.29825ZM166.502 1.29825L167.435 0.938503V0.938501L166.502 1.29825ZM155.517 22V23H156.203L156.45 22.3597L155.517 22ZM174.483 22L173.55 22.3597L173.797 23H174.483V22ZM164.431 1.658C164.673 1.03149 164.967 1 165 1C165.033 1 165.327 1.03149 165.569 1.658L167.435 0.938501C167.009 -0.165984 166.135 -0.999997 165 -0.999996C163.865 -0.999995 162.991 -0.165981 162.565 0.938503L164.431 1.658ZM156.45 22.3597L164.431 1.658L162.565 0.938505L154.584 21.6403L156.45 22.3597ZM10 23H155.517V21H10V23ZM1 32C1 27.0294 5.02944 23 10 23V21C3.92487 21 -1 25.9249 -1 32H1ZM1 139V32H-1V139H1ZM10 148C5.02944 148 1 143.971 1 139H-1C-1 145.075 3.92488 150 10 150V148ZM311 148H10V150H311V148ZM320 139C320 143.971 315.971 148 311 148V150C317.075 150 322 145.075 322 139H320ZM320 32V139H322V32H320ZM311 23C315.971 23 320 27.0294 320 32H322C322 25.9249 317.075 21 311 21V23ZM174.483 23H311V21H174.483V23ZM165.569 1.65799L173.55 22.3597L175.416 21.6403L167.435 0.938503L165.569 1.65799Z" fill="#035FB1" mask="url(#path-1-inside-1_3168_3787)"/>
</g>
<defs>
<filter id="filter0_d_3168_3787" x="0" y="0" width="331" height="159" filterUnits="userSpaceOnUse" color-interpolation-filters="sRGB">
<feFlood flood-opacity="0" result="BackgroundImageFix"/>
<feColorMatrix in="SourceAlpha" type="matrix" values="0 0 0 0 0 0 0 0 0 0 0 0 0 0 0 0 0 0 127 0" result="hardAlpha"/>
<feOffset dx="5" dy="5"/>
<feGaussianBlur stdDeviation="2.5"/>
<feComposite in2="hardAlpha" operator="out"/>
<feColorMatrix type="matrix" values="0 0 0 0 0 0 0 0 0 0 0 0 0 0 0 0 0 0 0.1 0"/>
<feBlend mode="normal" in2="BackgroundImageFix" result="effect1_dropShadow_3168_3787"/>
<feBlend mode="normal" in="SourceGraphic" in2="effect1_dropShadow_3168_3787" result="shape"/>
</filter>
</defs>
</svg>

<svg width="331" height="159" fill="none" xmlns="http://www.w3.org/2000/svg"><g filter="url(#a)"><mask id="b" fill="#fff"><path fill-rule="evenodd" clip-rule="evenodd" d="M166.502 1.298c-.668-1.73-2.336-1.73-3.004 0L155.517 22H10C4.477 22 0 26.477 0 32v107c0 5.523 4.477 10 10 10h301c5.523 0 10-4.477 10-10V32c0-5.523-4.477-10-10-10H174.483l-7.981-20.702Z"/></mask><path fill-rule="evenodd" clip-rule="evenodd" d="M166.502 1.298c-.668-1.73-2.336-1.73-3.004 0L155.517 22H10C4.477 22 0 26.477 0 32v107c0 5.523 4.477 10 10 10h301c5.523 0 10-4.477 10-10V32c0-5.523-4.477-10-10-10H174.483l-7.981-20.702Z" fill="#FAFAFA"/><path d="m163.498 1.298-.933-.36.933.36Zm3.004 0 .933-.36-.933.36ZM155.517 22v1h.686l.247-.64-.933-.36Zm18.966 0-.933.36.247.64h.686v-1ZM164.431 1.658c.242-.627.536-.658.569-.658.033 0 .327.031.569.658l1.866-.72C167.009-.165 166.135-1 165-1s-2.009.834-2.435 1.939l1.866.719ZM156.45 22.36l7.981-20.702-1.866-.72-7.981 20.702 1.866.72ZM10 23h145.517v-2H10v2Zm-9 9a9 9 0 0 1 9-9v-2C3.925 21-1 25.925-1 32h2Zm0 107V32h-2v107h2Zm9 9a9 9 0 0 1-9-9h-2c0 6.075 4.925 11 11 11v-2Zm301 0H10v2h301v-2Zm9-9a9 9 0 0 1-9 9v2c6.075 0 11-4.925 11-11h-2Zm0-107v107h2V32h-2Zm-9-9a9 9 0 0 1 9 9h2c0-6.075-4.925-11-11-11v2Zm-136.517 0H311v-2H174.483v2Zm-8.914-21.342 7.981 20.702 1.866-.72-7.981-20.7-1.866.719Z" fill="#035FB1" mask="url(#b)"/></g><defs><filter id="a" x="0" y="0" width="331" height="159" filterUnits="userSpaceOnUse" color-interpolation-filters="sRGB"><feFlood flood-opacity="0" result="BackgroundImageFix"/><feColorMatrix in="SourceAlpha" values="0 0 0 0 0 0 0 0 0 0 0 0 0 0 0 0 0 0 127 0" result="hardAlpha"/><feOffset dx="5" dy="5"/><feGaussianBlur stdDeviation="2.5"/><feComposite in2="hardAlpha" operator="out"/><feColorMatrix values="0 0 0 0 0 0 0 0 0 0 0 0 0 0 0 0 0 0 0.1 0"/><feBlend in2="BackgroundImageFix" result="effect1_dropShadow_3168_3787"/><feBlend in="SourceGraphic" in2="effect1_dropShadow_3168_3787" result="shape"/></filter></defs></svg>
